src/icons/svg/x.svg

<svg width="20" height="20" viewBox="0 0 20 20" fill="none" xmlns="http://www.w3.org/2000/svg">
<path d="M15.1306 2H17.8448L11.915 8.77744L18.891 18H13.4288L9.15068 12.4066L4.2555 18H1.5396L7.88217 10.7508L1.19006 2H6.79088L10.658 7.11262L15.1306 2ZM14.178 16.3754H15.682L5.97365 3.53928H4.3597L14.178 16.3754Z" fill="black"/>
</svg>

<svg xmlns="http://www.w3.org/2000/svg" width="20" height="20" fill="none"><path fill="#000" d="M15.13 2h2.715l-5.93 6.777L18.891 18h-5.462L9.15 12.407 4.256 18H1.54l6.342-7.25L1.19 2h5.6l3.868 5.113zm-.952 14.375h1.504L5.974 3.54H4.36z"/></svg>
